X: 20593
T: The CONSTITUTION
C:
%R: hornpipe, reel
B: Elias Howe "The Musician's Companion" 1843 p.59 #3
S: http://imslp.org/wiki/The_Musician's_Companion_(Howe,_Elias)
Z: 2015 John Chambers <jc:trillian.mit.edu>
M: 2/4
L: 1/16
K: G
% - - - - - - - - - - - - - - - - - - - - - - - - -
|:\
BcdB G2d2 | egfa gfed | BcdB G2d2 | edcB B2A2 |\
BcdB G2d2 | egfa gfed | gfga gfed | BcAB G4 :|
|:\
gfga b2b2 | gbag e2d2 | edgd edgd | GABG E2D2 |\
GAGF EDEF | GABd gfed | gfga gfed | BcAB G4 :|
% - - - - - - - - - - - - - - - - - - - - - - - - -

%%sep 1 1 500

